source/assets/img/icon-code.svg

<?xml version="1.0" encoding="UTF-8"?>
<svg width="24px" height="24px" viewBox="0 0 24 24" version="1.1" xmlns="http://www.w3.org/2000/svg" xmlns:xlink="http://www.w3.org/1999/xlink">
    <!-- Generator: Sketch 42 (36781) - http://www.bohemiancoding.com/sketch -->
    <title>Group 12@2x</title>
    <desc>Created with Sketch.</desc>
    <defs></defs>
    <g id="Page-1" stroke="none" stroke-width="1" fill="none" fill-rule="evenodd">
        <g id="ComingSoon" transform="translate(-474.000000, -1265.000000)">
            <g id="Group-12" transform="translate(474.000000, 1265.000000)">
                <path d="M8.31629736,6.34483981 L8.31629736,7.89948367 C8.31629736,8.27636891 8.23707489,8.504067 8.07862759,8.58258476 L4.31343817,10.4434463 L8.07862759,12.3043079 C8.23707489,12.3671221 8.31629736,12.5948202 8.31629736,12.987409 L8.31629736,14.5184977 C8.31629736,14.8639758 8.21622688,14.9817507 8.01608292,14.8718258 L3.33774124,12.0216454 C3.11257929,11.8803134 3,11.5662471 3,11.079437 L3,9.80745568 C3,9.32064557 3.11257929,9.00657924 3.33774124,8.86524728 L8.01608292,6.01506687 C8.21622688,5.87373491 8.31629736,5.98365812 8.31629736,6.34483981 Z M10.7305218,18.146 L9.76733381,18.146 C9.56718985,18.146 9.5004762,17.9811152 9.56719085,17.6513406 C9.83404946,16.3636493 10.3093842,14.0081519 10.9932094,10.5847776 C11.6770346,7.16140331 12.1523694,4.79805421 12.419228,3.49465941 C12.494282,3.16488482 12.6068613,3 12.7569693,3 L13.7201573,3 C13.9203012,3 13.9870149,3.16488482 13.9203002,3.49465941 L11.068263,17.6513406 C11.0015484,17.9811152 10.8889691,18.146 10.7305218,18.146 Z M15.1837026,7.89948367 L15.1837026,6.34483981 C15.1837026,5.98365812 15.2837731,5.87373491 15.4839171,6.01506687 L20.1622588,8.86524728 C20.3874207,9.00657924 20.5,9.32064557 20.5,9.80745568 L20.5,11.079437 C20.5,11.5662471 20.3874207,11.8803134 20.1622588,12.0216454 L15.4839171,14.8718258 C15.2837731,14.9817507 15.1837026,14.8639758 15.1837026,14.5184977 L15.1837026,12.987409 C15.1837026,12.5948202 15.2629251,12.3671221 15.4213724,12.3043079 L19.1865618,10.4434463 L15.4213724,8.58258476 C15.2629251,8.504067 15.1837026,8.27636891 15.1837026,7.89948367 Z" id="&lt;/&gt;" fill="#8B8AAF"></path>
                <rect id="Rectangle-3" x="0" y="0" width="24" height="24"></rect>
            </g>
        </g>
    </g>
</svg>

<svg width="24" height="24" viewBox="0 0 24 24" xmlns="http://www.w3.org/2000/svg"><title>Group 12@2x</title><desc>Created with Sketch.</desc><g fill="none"><path d="M8.316 6.345v1.555c0 .377-.079.605-.238.683l-3.765 1.861 3.765 1.861c.158.063.238.291.238.683v1.531c0 .345-.1.463-.3.353l-4.678-2.85c-.225-.141-.338-.455-.338-.942v-1.272c0-.487.113-.801.338-.942l4.678-2.85c.2-.141.3-.031.3.33zm2.414 11.801h-.963c-.2 0-.267-.165-.2-.495.267-1.288.742-3.643 1.426-7.067.684-3.423 1.159-5.787 1.426-7.09.075-.33.188-.495.338-.495h.963c.2 0 .267.165.2.495l-2.852 14.157c-.067.33-.179.495-.338.495zm4.453-10.247v-1.555c0-.361.1-.471.3-.33l4.678 2.85c.225.141.338.455.338.942v1.272c0 .487-.113.801-.338.942l-4.678 2.85c-.2.11-.3-.008-.3-.353v-1.531c0-.393.079-.62.238-.683l3.765-1.861-3.765-1.861c-.158-.079-.238-.306-.238-.683z" fill="#8B8AAF"/><path d="M0 0h24v24h-24z"/></g></svg>
